X:1
T: A Night at the Fair
C:
R:Jig
Q:180
K:G
M:6/8
L:1/16
A2|B4A2 G2E2D2|E2G2G2 G4A2|B2G2G2 d2G2G2|B2A2A2 A2B2c2|B4A2 G2E2D2|E2G2G2 G4A2|B2G2B2 A2d2c2|B2G2G2 G4A2|
B4A2 G2E2D2|E2G2G2 G4A2|B2G2G2 d2G2G2|B2A2A2 A2B2c2|B4A2 G2E2D2|E2G2G2 G4A2|B2G2B2 A2d2c2|B2G2G2 G4d2|
e2g2g2 e2a2a2|e2g2g2 g2e2d2|e2d2B2 A2G2A2|B2A2A2 A4d2|e2g2g2 e2a2a2|e2g2g2 g2e2d2|c2e2d2 c2B2A2|B2G2G2 G4d2|
e2g2g2 e2a2a2|e2g2g2 g2e2d2|e2d2B2 A2G2A2|B2A2A2 A4d2|e2g2g2 e2a2a2|e2g2g2 g2e2d2|c2e2d2 c2B2A2|B2G2G2 G4||
